komodo/Komodo-Biru/devices/scalable/media-optical.svg

<?xml version="1.0" encoding="UTF-8" standalone="no"?>
<!-- Created with Inkscape (http://www.inkscape.org/) -->

<svg
   xmlns:dc="http://purl.org/dc/elements/1.1/"
   xmlns:cc="http://creativecommons.org/ns#"
   xmlns:rdf="http://www.w3.org/1999/02/22-rdf-syntax-ns#"
   xmlns:svg="http://www.w3.org/2000/svg"
   xmlns="http://www.w3.org/2000/svg"
   xmlns:xlink="http://www.w3.org/1999/xlink"
   xmlns:sodipodi="http://sodipodi.sourceforge.net/DTD/sodipodi-0.dtd"
   xmlns:inkscape="http://www.inkscape.org/namespaces/inkscape"
   width="96"
   height="96"
   id="svg2982"
   version="1.1"
   inkscape:version="0.48.1 r9760"
   sodipodi:docname="media-optical.svg">
  <defs
     id="defs2984">
    <filter
       color-interpolation-filters="sRGB"
       inkscape:collect="always"
       id="filter6279-2">
      <feGaussianBlur
         inkscape:collect="always"
         stdDeviation="0.8"
         id="feGaussianBlur6281-1" />
    </filter>
    <linearGradient
       x1="25.220379"
       y1="61.92226"
       x2="94.567612"
       y2="61.92226"
       id="linearGradient4004-8"
       xlink:href="#linearGradient3362"
       gradientUnits="userSpaceOnUse" />
    <linearGradient
       id="linearGradient3362">
      <stop
         id="stop3364-90"
         style="stop-color:#4d4d4d;stop-opacity:1"
         offset="0" />
      <stop
         id="stop3366-6"
         style="stop-color:#ffffff;stop-opacity:1"
         offset="1" />
    </linearGradient>
    <radialGradient
       cx="59.893993"
       cy="61.92226"
       r="33.71384"
       fx="59.893993"
       fy="61.92226"
       id="radialGradient4012"
       xlink:href="#linearGradient3342-8"
       gradientUnits="userSpaceOnUse"
       gradientTransform="matrix(1,0,0,0.8375435,0,10.059672)" />
    <linearGradient
       id="linearGradient3342-8">
      <stop
         id="stop3344"
         style="stop-color:#000000;stop-opacity:0"
         offset="0" />
      <stop
         id="stop3350"
         style="stop-color:#000000;stop-opacity:0"
         offset="0.85000002" />
      <stop
         id="stop3346-7"
         style="stop-color:#000000;stop-opacity:1"
         offset="1" />
    </linearGradient>
    <linearGradient
       x1="26.180153"
       y1="61.92226"
       x2="93.607834"
       y2="61.92226"
       id="linearGradient4014"
       xlink:href="#linearGradient3330"
       gradientUnits="userSpaceOnUse" />
    <linearGradient
       id="linearGradient3330">
      <stop
         id="stop3332-9"
         style="stop-color:#ffffff;stop-opacity:0.203125"
         offset="0" />
      <stop
         id="stop3334"
         style="stop-color:#ffffff;stop-opacity:0.6796875"
         offset="1" />
    </linearGradient>
    <clipPath
       id="clipPath4031">
      <path
         d="M 48,32 C 28.117749,32 12,48.117749 12,68 12,87.882251 28.117749,104 48,104 67.882251,104 84,87.882251 84,68 84,48.117749 67.882251,32 48,32 z m 0,24 c 6.627417,0 12,5.372583 12,12 0,6.627417 -5.372583,12 -12,12 -6.627417,0 -12,-5.372583 -12,-12 0,-6.627417 5.372583,-12 12,-12 z"
         inkscape:connector-curvature="0"
         id="path4033"
         style="fill:#bbb1bf;fill-opacity:1;stroke:none" />
    </clipPath>
    <filter
       x="-0.19037074"
       y="-0.1707008"
       width="1.3807415"
       height="1.3414016"
       color-interpolation-filters="sRGB"
       id="filter4035">
      <feGaussianBlur
         id="feGaussianBlur4037"
         stdDeviation="4.9476562" />
    </filter>
    <clipPath
       id="clipPath4187">
      <path
         d="m 48,102 c -19.88225,0 -36,16.11775 -36,36 0,19.88225 16.11775,36 36,36 19.88225,0 36,-16.11775 36,-36 0,-19.88225 -16.11775,-36 -36,-36 z m 0,24 c 6.62742,0 12,5.37258 12,12 0,6.62742 -5.37258,12 -12,12 -6.62742,0 -12,-5.37258 -12,-12 0,-6.62742 5.37258,-12 12,-12 z"
         inkscape:connector-curvature="0"
         id="path4189"
         style="fill:#bbb1bf;fill-opacity:1;stroke:none" />
    </clipPath>
    <filter
       x="-0.18000001"
       y="-0.18000001"
       width="1.36"
       height="1.36"
       color-interpolation-filters="sRGB"
       id="filter4195">
      <feGaussianBlur
         id="feGaussianBlur4197"
         stdDeviation="5.2159999" />
    </filter>
  </defs>
  <sodipodi:namedview
     id="base"
     pagecolor="#ffffff"
     bordercolor="#666666"
     borderopacity="1.0"
     inkscape:pageopacity="0.0"
     inkscape:pageshadow="2"
     inkscape:zoom="3.959798"
     inkscape:cx="36.39115"
     inkscape:cy="42.877139"
     inkscape:document-units="px"
     inkscape:current-layer="layer1"
     showgrid="false"
     inkscape:window-width="1280"
     inkscape:window-height="725"
     inkscape:window-x="0"
     inkscape:window-y="25"
     inkscape:window-maximized="1" />
  <metadata
     id="metadata2987">
    <rdf:RDF>
      <cc:Work
         rdf:about="">
        <dc:format>image/svg+xml</dc:format>
        <dc:type
           rdf:resource="http://purl.org/dc/dcmitype/StillImage" />
        <dc:title></dc:title>
      </cc:Work>
    </rdf:RDF>
  </metadata>
  <g
     inkscape:label="Layer 1"
     inkscape:groupmode="layer"
     id="layer1"
     transform="translate(0,-956.36218)">
    <g
       id="g7055">
      <rect
         transform="translate(0,-7.8515622e-6)"
         y="964.36218"
         x="8"
         height="80"
         width="80"
         id="rect9283"
         style="fill:#000000;fill-opacity:1;stroke:none;filter:url(#filter6279-2)"
         rx="5"
         ry="5" />
      <rect
         ry="5"
         rx="5"
         style="opacity:0.9;fill:#ffffff;fill-opacity:1;stroke:none"
         id="rect9285"
         width="80"
         height="80"
         x="8"
         y="964.36218" />
      <g
         style="display:inline"
         id="layer6"
         transform="matrix(0.75,0,0,0.75,12,968.36218)">
        <path
           style="fill:#bbb1bf;fill-opacity:1;stroke:none"
           id="path3978"
           inkscape:connector-curvature="0"
           d="M 48,12 C 28.117749,12 12,28.117749 12,48 12,67.882251 28.117749,84 48,84 67.882251,84 84,67.882251 84,48 84,28.117749 67.882251,12 48,12 z m 0,24 c 6.627417,0 12,5.372583 12,12 0,6.627417 -5.372583,12 -12,12 -6.627417,0 -12,-5.372583 -12,-12 0,-6.627417 5.372583,-12 12,-12 z" />
        <path
           style="opacity:0.3;fill:#ffffff;fill-opacity:1;stroke:none"
           id="path3992"
           inkscape:connector-curvature="0"
           d="m 48,36 c -6.627417,0 -12,5.372583 -12,12 0,6.627417 5.372583,12 12,12 6.627417,0 12,-5.372583 12,-12 0,-6.627417 -5.372583,-12 -12,-12 z m 0,7 c 2.761424,0 5,2.238576 5,5 0,2.761424 -2.238576,5 -5,5 -2.761424,0 -5,-2.238576 -5,-5 0,-2.761424 2.238576,-5 5,-5 z" />
        <path
           style="opacity:0.6;fill:none;stroke:url(#linearGradient4004-8);stroke-width:5.4220953;stroke-linecap:round;stroke-linejoin:miter;stroke-miterlimit:4;stroke-opacity:1;stroke-dasharray:none;stroke-dashoffset:0;display:inline"
           id="path4002"
           transform="matrix(0,0.16827027,-0.20214285,0,60.517143,37.921621)"
           d="m 92.579506,61.92226 a 32.685513,27.208481 0 1 1 -65.371025,0 32.685513,27.208481 0 1 1 65.371025,0 z"
           inkscape:connector-curvature="0" />
        <path
           style="opacity:0.5;fill:url(#radialGradient4012);fill-opacity:1;fill-rule:evenodd;stroke:url(#linearGradient4014);stroke-width:3.13912511;stroke-linecap:round;stroke-linejoin:miter;stroke-miterlimit:4;stroke-opacity:1;stroke-dasharray:none;stroke-dashoffset:0;display:inline"
           id="path4010"
           transform="matrix(0,0.2906454,-0.34915584,0,69.620519,30.592193)"
           d="m 92.579506,61.92226 a 32.685513,27.208481 0 1 1 -65.371025,0 32.685513,27.208481 0 1 1 65.371025,0 z"
           inkscape:connector-curvature="0" />
        <path
           style="opacity:0.8;fill:#ffffff;fill-opacity:1;stroke:none;filter:url(#filter4035)"
           id="path4018"
           clip-path="url(#clipPath4031)"
           transform="translate(0,-20)"
           inkscape:connector-curvature="0"
           d="M 57.3125,33.21875 48,68 79.1875,50 C 74.413603,41.731368 66.53496,35.689901 57.3125,33.21875 z M 48,68 16.8125,86 c 4.773897,8.268632 12.65254,14.3101 21.875,16.78125 L 48,68 z" />
        <g
           style="opacity:0.6;filter:url(#filter4195)"
           id="g4175"
           clip-path="url(#clipPath4187)"
           transform="translate(0,-90)">
          <path
             style="fill:#7137c8;fill-opacity:1;stroke:none"
             id="path4039"
             transform="matrix(1.5055399,0.86922388,-0.95672979,1.6571045,27.560302,21.500167)"
             d="m 60.947452,57.784124 a 20.708128,18.814091 0 0 1 -2.615496,2.905857 L 43.689098,47.38641 z"
             inkscape:connector-curvature="0" />
          <path
             style="fill:#00ccff;fill-opacity:1;stroke:none"
             id="path4041"
             transform="matrix(1.6792116,0.4499434,-0.49523981,1.8482599,-1.8956092,30.759984)"
             d="m 60.779363,58.010828 a 20.708128,18.814091 0 0 1 -3.384016,3.478847 L 43.689098,47.38641 z"
             inkscape:connector-curvature="0" />
          <path
             style="fill:#ffcc00;fill-opacity:1;stroke:none"
             id="path4043"
             transform="matrix(1.7384478,0,-6.0266211e-8,1.9134595,-27.951218,47.328031)"
             d="m 62.72377,54.795738 a 20.708128,18.814091 0 0 1 -2.259683,3.622054 L 43.689098,47.38641 z"
             inkscape:connector-curvature="0" />
          <path
             style="fill:#ff0000;fill-opacity:1;stroke:none"
             id="path4045"
             transform="matrix(1.6792116,-0.4499434,0.4952397,1.84826,-48.830877,70.075223)"
             d="m 61.622863,56.793455 a 20.708128,18.814091 0 0 1 -1.699251,2.272761 L 43.689098,47.38641 z"
             inkscape:connector-curvature="0" />
          <path
             style="fill:#00ff00;fill-opacity:1;stroke:none"
             id="path4144"
             transform="matrix(1.6792116,0.4499434,-0.49523981,1.8482599,-1.8956092,30.759984)"
             d="m 63.123303,53.883448 a 20.708128,18.814091 0 0 1 -2.370014,4.161918 L 43.689098,47.38641 z"
             inkscape:connector-curvature="0" />
          <path
             style="fill:#7137c8;fill-opacity:1;stroke:none"
             id="path4155"
             transform="matrix(-1.5055399,-0.86922388,0.95672979,-1.6571045,68.439684,254.49984)"
             d="m 60.947452,57.784124 a 20.708128,18.814091 0 0 1 -2.615496,2.905857 L 43.689098,47.38641 z"
             inkscape:connector-curvature="0" />
          <path
             style="fill:#00ccff;fill-opacity:1;stroke:none"
             id="path4157"
             transform="matrix(-1.6792116,-0.4499434,0.49523981,-1.8482599,97.895595,245.24003)"
             d="m 60.779363,58.010828 a 20.708128,18.814091 0 0 1 -3.384016,3.478847 L 43.689098,47.38641 z"
             inkscape:connector-curvature="0" />
          <path
             style="fill:#ffcc00;fill-opacity:1;stroke:none"
             id="path4159"
             transform="matrix(-1.7384478,0,6.0266211e-8,-1.9134595,123.9512,228.67198)"
             d="m 62.72377,54.795738 a 20.708128,18.814091 0 0 1 -2.259683,3.622054 L 43.689098,47.38641 z"
             inkscape:connector-curvature="0" />
          <path
             style="fill:#ff0000;fill-opacity:1;stroke:none"
             id="path4161"
             transform="matrix(-1.6792116,0.4499434,-0.4952397,-1.84826,144.83086,205.92479)"
             d="m 61.622863,56.793455 a 20.708128,18.814091 0 0 1 -1.699251,2.272761 L 43.689098,47.38641 z"
             inkscape:connector-curvature="0" />
          <path
             style="fill:#00ff00;fill-opacity:1;stroke:none"
             id="path4163"
             transform="matrix(-1.6792116,-0.4499434,0.49523981,-1.8482599,97.895595,245.24003)"
             d="m 63.123303,53.883448 a 20.708128,18.814091 0 0 1 -2.370014,4.161918 L 43.689098,47.38641 z"
             inkscape:connector-curvature="0" />
        </g>
        <path
           style="opacity:0.2;fill:#000000;fill-opacity:1;stroke:none"
           id="path3986"
           inkscape:connector-curvature="0"
           d="m 48,33.5 c -8.008129,0 -14.5,6.491871 -14.5,14.5 0,8.008129 6.491871,14.5 14.5,14.5 8.008129,0 14.5,-6.491871 14.5,-14.5 0,-8.008129 -6.491871,-14.5 -14.5,-14.5 z m 0,2.5 c 6.627417,0 12,5.372583 12,12 0,6.627417 -5.372583,12 -12,12 -6.627417,0 -12,-5.372583 -12,-12 0,-6.627417 5.372583,-12 12,-12 z" />
      </g>
    </g>
  </g>
</svg>

<?xml version="1.0" encoding="UTF-8" standalone="no"?>
<!-- Created with Inkscape (http://www.inkscape.org/) -->
<svg id="svg2982" xmlns:rdf="http://www.w3.org/1999/02/22-rdf-syntax-ns#" xmlns="http://www.w3.org/2000/svg" height="96" width="96" version="1.1" xmlns:cc="http://creativecommons.org/ns#" xmlns:xlink="http://www.w3.org/1999/xlink" xmlns:dc="http://purl.org/dc/elements/1.1/">
 <defs id="defs2984">
  <filter id="filter6279-2" color-interpolation-filters="sRGB">
   <feGaussianBlur id="feGaussianBlur6281-1" stdDeviation="0.8"/>
  </filter>
  <linearGradient id="linearGradient4004-8" y2="61.922" gradientUnits="userSpaceOnUse" x2="94.568" y1="61.922" x1="25.22">
   <stop id="stop3364-90" style="stop-color:#4d4d4d" offset="0"/>
   <stop id="stop3366-6" style="stop-color:#fff" offset="1"/>
  </linearGradient>
  <radialGradient id="radialGradient4012" gradientUnits="userSpaceOnUse" cy="61.922" cx="59.894" gradientTransform="matrix(1 0 0 .83754 0 10.06)" r="33.714">
   <stop id="stop3344" style="stop-opacity:0" offset="0"/>
   <stop id="stop3350" style="stop-opacity:0" offset="0.85"/>
   <stop id="stop3346-7" offset="1"/>
  </radialGradient>
  <linearGradient id="linearGradient4014" y2="61.922" gradientUnits="userSpaceOnUse" x2="93.608" y1="61.922" x1="26.18">
   <stop id="stop3332-9" style="stop-color:#fff;stop-opacity:.20312" offset="0"/>
   <stop id="stop3334" style="stop-color:#fff;stop-opacity:.67969" offset="1"/>
  </linearGradient>
  <clipPath id="clipPath4031">
   <path id="path4033" style="fill:#bbb1bf" d="m48 32c-19.882 0-36 16.118-36 36s16.118 36 36 36 36-16.118 36-36-16.118-36-36-36zm0 24c6.6274 0 12 5.3726 12 12s-5.3726 12-12 12-12-5.3726-12-12 5.3726-12 12-12z"/>
  </clipPath>
  <filter id="filter4035" height="1.3414" width="1.3807" color-interpolation-filters="sRGB" y="-.17070" x="-.19037">
   <feGaussianBlur id="feGaussianBlur4037" stdDeviation="4.9476562"/>
  </filter>
  <clipPath id="clipPath4187">
   <path id="path4189" style="fill:#bbb1bf" d="m48 102c-19.882 0-36 16.118-36 36s16.118 36 36 36 36-16.118 36-36-16.118-36-36-36zm0 24c6.6274 0 12 5.3726 12 12s-5.3726 12-12 12-12-5.3726-12-12 5.3726-12 12-12z"/>
  </clipPath>
  <filter id="filter4195" height="1.36" width="1.36" color-interpolation-filters="sRGB" y="-0.18" x="-0.18">
   <feGaussianBlur id="feGaussianBlur4197" stdDeviation="5.2159999"/>
  </filter>
 </defs>
 <metadata id="metadata2987">
  <rdf:RDF>
   <cc:Work rdf:about="">
    <dc:format>image/svg+xml</dc:format>
    <dc:type rdf:resource="http://purl.org/dc/dcmitype/StillImage"/>
    <dc:title/>
   </cc:Work>
  </rdf:RDF>
 </metadata>
 <g id="layer1" transform="translate(0 -956.36)">
  <g id="g7055">
   <rect id="rect9283" ry="5" style="filter:url(#filter6279-2)" rx="5" transform="translate(0 -.0000078516)" height="80" width="80" y="964.36" x="8"/>
   <rect id="rect9285" style="opacity:.9;fill:#fff" rx="5" ry="5" height="80" width="80" y="964.36" x="8"/>
   <g id="layer6" transform="matrix(.75 0 0 .75 12 968.36)">
    <path id="path3978" d="m48 12c-19.882 0-36 16.118-36 36s16.118 36 36 36 36-16.118 36-36-16.118-36-36-36zm0 24c6.6274 0 12 5.3726 12 12s-5.3726 12-12 12-12-5.3726-12-12 5.3726-12 12-12z" style="fill:#bbb1bf"/>
    <path id="path3992" d="m48 36c-6.6274 0-12 5.3726-12 12s5.3726 12 12 12 12-5.3726 12-12-5.3726-12-12-12zm0 7c2.7614 0 5 2.2386 5 5s-2.2386 5-5 5-5-2.2386-5-5 2.2386-5 5-5z" style="opacity:.3;fill:#fff"/>
    <path id="path4002" d="m92.58 61.922a32.686 27.208 0 1 1 -65.371 0 32.686 27.208 0 1 1 65.371 0z" style="opacity:.6;stroke:url(#linearGradient4004-8);stroke-linecap:round;stroke-width:5.4221;fill:none" transform="matrix(0 .16827 -.20214 0 60.517 37.922)"/>
    <path id="path4010" d="m92.58 61.922a32.686 27.208 0 1 1 -65.371 0 32.686 27.208 0 1 1 65.371 0z" style="opacity:.5;fill-rule:evenodd;stroke:url(#linearGradient4014);stroke-linecap:round;stroke-width:3.1391;fill:url(#radialGradient4012)" transform="matrix(0 .29065 -.34916 0 69.621 30.592)"/>
    <path id="path4018" style="opacity:.8;filter:url(#filter4035);fill:#fff" d="m57.312 33.219-9.312 34.781 31.188-18c-4.774-8.269-12.653-14.31-21.876-16.781zm-9.312 34.781-31.188 18c4.7739 8.2686 12.653 14.31 21.875 16.781l9.313-34.78z" clip-path="url(#clipPath4031)" transform="translate(0,-20)"/>
    <g id="g4175" style="opacity:.6;filter:url(#filter4195)" transform="translate(0,-90)" clip-path="url(#clipPath4187)">
     <path id="path4039" d="m60.947 57.784a20.708 18.814 0 0 1 -2.6155 2.9059l-14.643-13.304z" style="fill:#7137c8" transform="matrix(1.5055 .86922 -.95673 1.6571 27.56 21.5)"/>
     <path id="path4041" d="m60.779 58.011a20.708 18.814 0 0 1 -3.384 3.4788l-13.706-14.104z" style="fill:#0cf" transform="matrix(1.6792 .44994 -.49524 1.8483 -1.8956 30.76)"/>
     <path id="path4043" d="m62.724 54.796a20.708 18.814 0 0 1 -2.2597 3.6221l-16.775-11.032z" style="fill:#fc0" transform="matrix(1.7384 0 -6.0266e-8 1.9135 -27.951 47.328)"/>
     <path id="path4045" d="m61.623 56.793a20.708 18.814 0 0 1 -1.6993 2.2728l-16.235-11.68z" style="fill:#f00" transform="matrix(1.6792 -.44994 .49524 1.8483 -48.831 70.075)"/>
     <path id="path4144" d="m63.123 53.883a20.708 18.814 0 0 1 -2.37 4.1619l-17.064-10.659z" style="fill:#0f0" transform="matrix(1.6792 .44994 -.49524 1.8483 -1.8956 30.76)"/>
     <path id="path4155" d="m60.947 57.784a20.708 18.814 0 0 1 -2.6155 2.9059l-14.643-13.304z" style="fill:#7137c8" transform="matrix(-1.5055 -.86922 .95673 -1.6571 68.44 254.5)"/>
     <path id="path4157" d="m60.779 58.011a20.708 18.814 0 0 1 -3.384 3.4788l-13.706-14.104z" style="fill:#0cf" transform="matrix(-1.6792 -.44994 .49524 -1.8483 97.896 245.24)"/>
     <path id="path4159" d="m62.724 54.796a20.708 18.814 0 0 1 -2.2597 3.6221l-16.775-11.032z" style="fill:#fc0" transform="matrix(-1.7384 0 6.0266e-8 -1.9135 123.95 228.67)"/>
     <path id="path4161" d="m61.623 56.793a20.708 18.814 0 0 1 -1.6993 2.2728l-16.235-11.68z" style="fill:#f00" transform="matrix(-1.6792 .44994 -.49524 -1.8483 144.83 205.92)"/>
     <path id="path4163" d="m63.123 53.883a20.708 18.814 0 0 1 -2.37 4.1619l-17.064-10.659z" style="fill:#0f0" transform="matrix(-1.6792 -.44994 .49524 -1.8483 97.896 245.24)"/>
    </g>
    <path id="path3986" d="m48 33.5c-8.0081 0-14.5 6.4919-14.5 14.5s6.4919 14.5 14.5 14.5 14.5-6.4919 14.5-14.5-6.4919-14.5-14.5-14.5zm0 2.5c6.6274 0 12 5.3726 12 12s-5.3726 12-12 12-12-5.3726-12-12 5.3726-12 12-12z" style="opacity:.2"/>
   </g>
  </g>
 </g>
</svg>
